X: 1
T: The Humours Of Westport
R: reel
M: 4/4
L: 1/8
K: Fmaj
|f2 fe fcAc|f2 fe fage|f2 fe fcAc|BAGA Bcde|f2 fe fcAc|f2 fe fagb|afge fcAc|BAGA BdcB||AFcF dFcF|AFcF BdcB|AFcF dFcF|BAGA BdcB|AFcF dFcF|AFcF BdcB|Acfa gefc|BAGA Bcde|


Tune 47	Setting 12476

